src/ui/icons/weather/81.svg

<?xml version="1.0" encoding="UTF-8"?>
<svg width="40px" height="40px" viewBox="0 0 40 40" version="1.1" xmlns="http://www.w3.org/2000/svg" xmlns:xlink="http://www.w3.org/1999/xlink">
    <title>47</title>
    <g id="Page-1" stroke="none" stroke-width="1" fill="none" fill-rule="evenodd">
        <g id="icons-day" transform="translate(-2455.000000, -6.000000)" fill="#FFFFFF" fill-rule="nonzero">
            <g id="icons" transform="translate(25.000000, 6.000000)">
                <g id="47" transform="translate(2431.499429, 7.499429)">
                    <path d="M14.4814811,1.77635684e-15 C17.3485996,1.77635684e-15 19.9181703,1.56384923 21.2708965,3.97139323 C18.9023155,4.98297341 17.1947732,7.23324591 16.9696329,9.90342583 L16.9696329,9.90342583 L16.5602889,9.90342583 C13.928092,9.90342583 11.7955048,12.0276163 11.7955048,14.6480177 C11.7955048,15.9036168 12.2851145,17.0451014 13.0845548,17.8936376 L4.69850941,17.893181 C2.10319848,17.893181 -2.20978791e-12,15.7901824 -2.20978791e-12,13.1949714 C-2.20978791e-12,10.672044 1.98788247,8.61398575 4.4833993,8.50159588 L4.69850941,8.4967619 L6.60968107,8.4967619 L6.72513707,7.12278552 C7.06200869,3.11111436 10.4288256,1.77635684e-15 14.4814811,1.77635684e-15 Z" id="Combined-Shape"></path>
                    <path d="M24.0812227,4.89813333 C26.4911043,4.89813333 28.609597,6.41535512 29.3985963,8.63710842 L29.3985963,8.63710842 L29.8145378,9.80846202 L31.0427697,9.61683505 C31.2579877,9.58324785 31.4771042,9.56625432 31.6990196,9.56625432 C34.0130377,9.56625432 35.8863238,11.4316434 35.8863238,13.7297676 C35.8863238,16.0276919 34.0130377,17.893181 31.6990196,17.893181 L31.6990196,17.893181 L16.5602889,17.893181 C14.7552768,17.893181 13.2949333,16.439235 13.2949333,14.6480177 C13.2949333,12.8569003 14.7549769,11.4028544 16.5602889,11.4028544 L16.5602889,11.4028544 L18.3478077,11.4028544 L18.4637635,10.0293778 C18.7072707,7.14097859 21.1446418,4.89813333 24.0812227,4.89813333 Z" id="Combined-Shape"></path>
                    <g id="Group" transform="translate(9.196495, 22.091581)">
                        <path d="M5.59786943,6.19903756 C5.59786943,7.74404876 4.34474423,8.99657143 2.79893333,8.99657143 C1.25312244,8.99657143 0,7.74404876 0,6.19903756 C0,5.77100069 0.0961633524,5.36535528 0.26819779,5.00259352 L1.83560046,1.0147133 C2.36719787,-0.337771276 3.22866956,-0.338770895 3.76056686,1.0147133 L5.3206723,4.98380069 C5.50368832,5.36273768 5.59845935,5.7782196 5.59786943,6.19903756 L5.59786943,6.19903756 Z" id="Path"></path>
                        <path d="M13.3948952,3.09881905 L15.3933336,1.90757303 C15.7759878,1.68465798 16.2654013,1.81700754 16.4863171,2.20306042 C16.7072329,2.58901333 16.5761829,3.08272518 16.1934287,3.30564023 L14.1945905,4.49828571 L16.1934287,5.69103116 C16.5761829,5.91394621 16.7072329,6.4075581 16.4863171,6.79361097 C16.2654013,7.17956389 15.7759878,7.31191345 15.3933336,7.0889984 L13.3948952,5.89775238 L13.3948952,8.20567284 C13.3948952,8.64250636 13.0368317,8.99657143 12.5952,8.99657143 C12.1535683,8.99657143 11.7955048,8.64250636 11.7955048,8.20567284 L11.7955048,5.89775238 L9.69710446,7.0889984 C9.31445029,7.31191345 8.8250368,7.17956389 8.60412099,6.79351101 C8.38320518,6.4075581 8.51425524,5.91384625 8.89700937,5.6909312 L10.8958476,4.49828571 L8.89700937,3.30554027 C8.51425524,3.08262522 8.38320518,2.58901333 8.60412099,2.20296046 C8.8250368,1.81700754 9.31445029,1.68465798 9.69710446,1.90757303 L11.7955048,3.09881905 L11.7955048,0.79089859 C11.7955048,0.354065067 12.1535683,0 12.5952,0 C13.0368317,0 13.3948952,0.354065067 13.3948952,0.79089859 L13.3948952,3.09881905 Z" id="Path"></path>
                    </g>
                </g>
            </g>
        </g>
    </g>
</svg>

<svg id="icon-icon_weather_81" width="40" height="40" viewBox="0 0 40 40">
    <g fill="none" fill-rule="evenodd">
        <g fill-rule="nonzero">
            <g>
                <g>
                    <path fill="#FFF" d="M15.98.5C11.408.5 7.61 4.01 7.229 8.539l-.038.458h-.992C3.05 8.997.5 11.547.5 14.694c0 3.148 2.55 5.698 5.698 5.698H25.89c3.81 0 6.898-3.088 6.898-6.897 0-3.81-3.089-6.898-6.898-6.898-.363 0-.723.028-1.077.084l-.41.064-.139-.391C23.034 2.874 19.734.5 15.981.5z" transform="translate(-2455 -6) translate(25 6) translate(2430 6)"/>
                    <path fill="#333" d="M15.98 1.5c-4.052 0-7.419 3.11-7.755 7.122l-.116 1.374H6.198c-2.595 0-4.699 2.103-4.699 4.698 0 2.596 2.104 4.699 4.699 4.699H25.89c3.257 0 5.898-2.64 5.898-5.898 0-3.257-2.64-5.898-5.898-5.898-.311 0-.62.024-.922.072l-1.23.193-.416-1.175C22.232 3.603 19.306 1.5 15.981 1.5zm0-1.5c4.042 0 7.48 2.582 8.756 6.187.382-.06.768-.09 1.154-.09 4.086 0 7.397 3.312 7.397 7.398 0 4.085-3.311 7.397-7.397 7.397H6.198C2.775 20.892 0 18.118 0 14.694c0-3.422 2.774-6.197 6.198-6.197h.532C7.13 3.737 11.12 0 15.981 0z" transform="translate(-2455 -6) translate(25 6) translate(2430 6)"/>
                    <path fill="#FFF" d="M25.536 5.262c-3.508 0-6.423 2.7-6.715 6.183l-.03.352h-.76c-2.415 0-4.372 1.962-4.372 4.383 0 2.42 1.957 4.382 4.372 4.382h15.107c2.923 0 5.292-2.375 5.292-5.305 0-2.93-2.37-5.305-5.292-5.305-.279 0-.555.022-.826.064l-.315.05-.106-.301c-.944-2.677-3.476-4.503-6.355-4.503z" transform="translate(-2455 -6) translate(25 6) translate(2430 6)"/>
                    <path fill="#333" d="M25.58 6.398c-2.936 0-5.373 2.242-5.617 5.13l-.116 1.374H18.06c-1.806 0-3.266 1.454-3.266 3.245 0 1.792 1.46 3.246 3.266 3.246h15.138c2.314 0 4.188-1.866 4.188-4.164 0-2.298-1.874-4.163-4.188-4.163-.221 0-.44.017-.656.05l-1.228.192-.416-1.171c-.789-2.222-2.907-3.74-5.317-3.74zm0-1.5c3.108 0 5.75 1.977 6.731 4.737.294-.046.59-.069.887-.069 3.141 0 5.687 2.536 5.687 5.663 0 3.128-2.546 5.663-5.687 5.663H18.06c-2.632 0-4.765-2.124-4.765-4.745 0-2.62 2.133-4.744 4.765-4.744h.41c.306-3.643 3.373-6.505 7.11-6.505z" transform="translate(-2455 -6) translate(25 6) translate(2430 6)"/>
                    <g fill="#333">
                        <path d="M5.598 6.199c0 1.545-1.253 2.798-2.8 2.798C1.254 8.997 0 7.744 0 6.199c0-.428.096-.834.268-1.196l1.568-3.988c.531-1.353 1.393-1.354 1.925 0l1.56 3.969c.183.379.277.794.277 1.215zM13.395 3.099l1.998-1.191c.383-.223.872-.091 1.093.295.221.386.09.88-.293 1.103l-1.998 1.192 1.998 1.193c.383.223.514.717.293 1.103-.22.386-.71.518-1.093.295l-1.998-1.191v2.308c0 .437-.358.79-.8.79-.441 0-.8-.353-.8-.79V5.898L9.698 7.089c-.383.223-.872.09-1.093-.295-.22-.386-.09-.88.293-1.103l1.999-1.193-1.999-1.192c-.383-.223-.514-.717-.293-1.103.221-.386.71-.518 1.093-.295l2.099 1.19V.792c0-.437.358-.791.8-.791.44 0 .799.354.799.79V3.1z" transform="translate(-2455 -6) translate(25 6) translate(2430 6) translate(10.696 23.591)"/>
                    </g>
                </g>
            </g>
        </g>
    </g>
</svg>
